X:1
T:Leith-Hall
T:Leith-Hall
T:William Marshall
C:William Marshall
L:1/8
Q:1/8=128
M:4/4
K:F
V:1 treble 
V:1
|: CF FF/G/ AF Ac | CF FG/A/ B/A/G/F/ D2 | CF FF/G/ AF Ac | df cf AG F2 | CF FF/G/ AF Ac | %5
 CF FG/A/ B/A/G/F/ D2 | CF FF/G/ AF Ac | df cf AG F2 | df df Af cf | df df df g2 | df df Af cf | %11
 df cA B/A/G/F/ D2 | df df Af cf | df df df ga | bg af ge fc | df cA B/A/G/F/ D2 :| %16

